X:45478381543423
T:5-11-8-4-6-10-2-9-2-5-6-6-7-5-3-5
%%setfont-1 Courier-Bold 8
T:$1K.516f::40:87:171:13:80:129:11:94:70:176:64:125:101:160:116:170::$0
T:$1Perm. No.: 45478381543423$0
M:3/8
L:1/8
Q:1/8=111
%%staves [1 2]
V:1 clef=treble
V:2 clef=bass
K:C
%1
[V:1]|: c/B/c/e/G/c/ |\
[V:2]|: [E,2C,2]z |\
%2
[V:1] gce |\
[V:2] [E,2C,2][G,C,] |\
%3
[V:1] B/c/d/e/f/d/ |\
[V:2] [G,2G,,2][G,B,,] |\
%4
[V:1] (cGE) |\
[V:2] [E,2G,2]z |\
%5
[V:1] d!turn!A^f |\
[V:2] C,2z |\
%6
[V:1] a/g/^f/g/d |\
[V:2] [D,B,,][D,B,,][G,B,,] |\
%7
[V:1] e/c/B/A/G/^F/ \
[V:2] C,D,D,, \
%8a
[V:1]|1 [g2d2B2G2]z :|2
[V:2]|1 G,,G,/=F,/E,/D,/ :|2
%8b
[V:1] [g2d2B2G2]z |:\
[V:2] G,,B,/G,/^F,/E,/ |:\
%9
[V:1] ^fa/f/d/f/ |\
[V:2] D,2C, |\
%10
[V:1] a/g/b/g/d/g/ |\
[V:2] [D,2B,,2][D,B,,] |\
%11
[V:1] e/g/c'/g/e/c/ |\
[V:2] [G,2C,2][G,C,] |\
%12
[V:1] g/e/d/B/G |\
[V:2] G,G,,z |\
%13
[V:1] e/d/e/g/c'/g/ |\
[V:2] G,2 E, & C,2 C, |\
%14
[V:1] c/B/c/e/G/c/ |\
[V:2] [E,2C,2][E,C,] |\
%15
[V:1] d/f/a/f/d/B/ |\
[V:2] F,2G, |\
%16
[V:1] c2z :|]
[V:2] C,G,,C,, :|]
